!!!Genre:	Freylekhs
!!!Mode:	Altered Dorian
!!!Listening/dance:	dance
!!!:	*G:
!!!One_Mode:	no
**kern
*part1
*staff1
*clefG2
*k[b-]
*G:
=10:|!|:
*k[f#]
*>C
8.bnL
16aJk
16bLL
16cc
16dd
16ccJJ
=11
8bL
16bL
16aJJ
16bLL
16cc
16dd
16ccJJ
=12
8bL
16bL
16aJJ
16bLL
16cc
16dd
16ccJJ
=13
(>16bLL
16cc)
(>16a
16bJJ)
4g
=14:|!|:
*>D
8a
4a
8cc
=15
8.bL
16aJk
16bLL
16ccJ
8ddJ
=16
8a
4a
8cc
=17
(16bLL
16cc)
(16a
16bJJ)
4g
=:|!
*>eM
*-
